X:1
T:Title
%%score { 1 | 2 }
L:1/8
M:6/8
K:G
V:1 treble nm="Grand Piano"
V:2 bass 
V:1
 z3 z2[Q:1/4=100] D | G2 A B2 [EA] | [DG] [DF]2- [DF]2 [DG] | [CE]2 [EG] [Ec]2 [GB] | %4
 [DA]3- [DA]2 [DA] | [^DB]2 [Dc] [DB]2 [B,DF] | [B,FA] [B,EG]2- [B,EG]2 [B,GB] | %7
 [^CGA]2 [CGA] [EGB]2 [EG^c] | [DFd]3- [DFd]2 [Fd] | c2 B c2 A | B B2- B2 [CFA] | %11
 [B,EG]2 [B,G] [^CGA]2 [CGB] | [DFA]3- [DFA]2 [DFA] | [DGB]2 [B,G] [DFc]2 [DFA] | %14
 [DGd] [DGB]2- [DGB]2 [CEA] | [B,DG]2 [DB] [CDA]2 [B,DG] |[M:5/8] [B,DG]-[B,DG]- [B,DG]3 | %17
[M:1/8] B |[M:3/4] d2 B e2 c | dB- B3 [CFA] | [B,EG]2 [B,G] [^CGA]2 [CGB] | [DFA]4- [DFA][DFA] | %22
 [DGB]2 [B,G] [DFc]2 [DFA] | [DGd][DGB]- [DGB]3 [CEA] | [B,DG]2 [DB] [CDA]2 [B,DG] | %25
[M:5/8] [B,DG]-[B,DG]- [B,DG]3 |] %26
V:2
 z3 z2 D, | [G,B,D]2 [G,CD] [G,D]2 [C,C] | [D,B,] [D,A,]2- [D,A,]2 [B,,G,] | %3
 [C,G,]2 [C,G,] [A,,A,]2 [A,,G,] | [D,F,]3- [D,F,]2 [D,F,] | [B,,F,]2 [B,,F,] [B,,F,]2 B,, | %6
 E, E,2- E,2 E, | A,,2 A,, A,,2 A,, | D,3- D,2 [D,A,] | [D,A,D]2 [D,^G,D] [D,A,D]2 [D,F,D] | %10
 [G,D] [G,DG]2- [G,DG]2[K:bass] D, | E,2 E, A,,2 A,, | D,3- D,2 D, | G,2 G, A,2 A, | %14
 B, G,2- G,2 C, | D,2 D, D,2 G,, |[M:5/8] G,,-G,,- G,,3 |[M:1/8][K:treble] [G,DG] | %18
[M:3/4] [G,B,G]2 [G,DG] [G,CG]2 [G,EG] | [G,B,G][G,DG]- [G,DG]3[K:bass] D, | E,2 E, A,,2 A,, | %21
 D,4- D,D, | G,2 G, A,2 A, | B,G,- G,3 C, | D,2 D, D,2 G,, |[M:5/8] G,,-G,,- G,,3 |] %26

